X:1
T:Title
%%score { ( 1 3 ) | ( 2 4 ) }
L:1/8
M:4/4
K:Ab
V:1 treble nm="Grand Piano"
V:3 treble 
V:2 bass 
V:4 bass 
V:1
 z4 z2[Q:1/4=100] [CE]2 | [CE]3 [_C=D] [=CE]2 [EA]2 | [FA]3 F F2 A2 | E3 A [EA]2 [Ec]2 | %4
[M:3/4] c3 B B2 |[M:1/4] c2 |[M:4/4] e3 c c2 [EA]2 | [FA]3 [DF] [DF]2 [Fd]2 | c2 A2 G3 B | %9
 [CEA]6 z2 | c4 A4 | d4 c4 | [=DB]2 [DF]2 [DG]2 [DA]2 | B4 [Ge]4 | e4 c4 |[M:9/8] .d6 z3 | %16
[M:4/4] E2 AA G [EGc]2 [DGB] |[M:3/4] [CEA]6 |] %18
V:2
 z4 z2 [A,,A,]2 | [A,,A,]3 [A,,A,] [A,,A,]2 [C,A,]2 | [D,A,]3 [D,A,D] [D,A,D]2 [F,A,D]2 | %3
 [A,C]3 [E,A,C] [C,A,]2 [A,,A,]2 |[M:3/4] [E,A,E]3 [E,G,E] [E,G,E]2 |[M:1/4][K:treble] [A,E]2 | %6
[M:4/4] [A,CA]3[K:bass] [A,E] [A,E]2 [C,A,]2 | [D,A,]3 [D,A,] [D,A,]2 [D,A,]2 | %8
 [E,A,E]2 [E,CE]2 [E,B,E]3 [E,DE] | A,,6 z2 | [A,,A,]2 [A,,A,]2 [A,C]2 A,2 | %11
 [D,A,]2 [D,A,]2 [A,,A,]2 [A,,A,]2 | [B,,A,]2 [B,,A,]2 [B,,G,]2 [B,,F,]2 | z4 B,2 z2 | %14
 [A,CA]>[A,C] [A,C]>[A,C] [A,E]2[K:bass] [A,,A,]2 | %15
[M:9/8] [D,A,]>[D,A,][D,A,]- [D,A,]/[D,A,]/ [D,A,D]2- [D,A,D][D,A,D][D,A,D] | %16
[M:4/4] [E,A,C]2 [E,CE][E,CE] [E,B,E] E,2 E, |[M:3/4] A,,6 |] %18
V:3
 x8 | x8 | x8 | x8 |[M:3/4] x6 |[M:1/4] x2 |[M:4/4] x8 | x8 | x8 | x8 | E2 E2 z2 C2 | F2 F2 E2 E2 | %12
 x8 | E2 F2 z2 D2 | z z/ A/ A>A z2 _G2 |[M:9/8] F>FF- F/F/ F2- FFF |[M:4/4] x8 |[M:3/4] x6 |] %18
V:4
 x8 | x8 | x8 | x8 |[M:3/4] x6 |[M:1/4][K:treble] x2 |[M:4/4] x3[K:bass] x5 | x8 | x8 | x8 | x8 | %11
 x8 | x8 | [E,G,]2 [E,A,]2 E,4 | x6[K:bass] x2 |[M:9/8] x9 |[M:4/4] x8 |[M:3/4] x6 |] %18

